assets/qwen/mono.svg

<svg viewBox="0 0 24 24" xmlns="http://www.w3.org/2000/svg"><path d="m23.919 14.545-3.102-5.375 1.47-2.544a.56.56 0 0 0 0-.566l-1.633-2.83a.57.57 0 0 0 -.49-.283h-6.207l-1.47-2.545a.57.57 0 0 0 -.49-.284h-3.265a.56.56 0 0 0 -.49.284l-3.103 5.373h-2.94a.56.56 0 0 0 -.49.284l-1.632 2.828a.56.56 0 0 0 0 .567l3.103 5.376-1.47 2.545a.56.56 0 0 0 0 .566l1.634 2.83a.57.57 0 0 0 .49.283h6.205l1.47 2.545a.57.57 0 0 0 .49.284h3.266a.57.57 0 0 0 .49-.284l3.104-5.375h2.94a.57.57 0 0 0 .49-.283l1.634-2.828a.55.55 0 0 0 -.004-.568m-15.186-13.859 1.634 2.828-1.634 2.828h13.067l-1.636 2.828h-12.739l-1.795-3.11zm1.306 19.801-6.205-.002 1.634-2.83h3.265l-6.532-11.311h3.267q3.182 5.517 6.367 11.032zm10.124-5.66-1.633-2.827-6.532 11.315-1.634-2.83c2.129-3.673 4.25-7.351 6.373-11.028h3.592l3.102 5.374z"/></svg>

<svg xmlns="http://www.w3.org/2000/svg" viewBox="0 0 24 24"><path d="M23.919 14.545 20.817 9.17l1.47-2.544a.56.56 0 0 0 0-.566l-1.633-2.83a.57.57 0 0 0-.49-.283h-6.207L12.487.402a.57.57 0 0 0-.49-.284H8.732a.56.56 0 0 0-.49.284L5.139 5.775h-2.94a.56.56 0 0 0-.49.284L.077 8.887a.56.56 0 0 0 0 .567L3.18 14.83l-1.47 2.545a.56.56 0 0 0 0 .566l1.634 2.83a.57.57 0 0 0 .49.283h6.205l1.47 2.545a.57.57 0 0 0 .49.284h3.266a.57.57 0 0 0 .49-.284l3.104-5.375h2.94a.57.57 0 0 0 .49-.283l1.634-2.828a.55.55 0 0 0-.004-.568M8.733.686l1.634 2.828-1.634 2.828H21.8L20.164 9.17H7.425L5.63 6.06zm1.306 19.801-6.205-.002 1.634-2.83h3.265L2.201 6.344h3.267q3.182 5.517 6.367 11.032zm10.124-5.66L18.53 12l-6.532 11.315-1.634-2.83c2.129-3.673 4.25-7.351 6.373-11.028h3.592l3.102 5.374z"/></svg>
